src/asset/24px/shopping-cart.svg

<svg width="24" height="24" viewBox="0 0 24 24" fill="none" xmlns="http://www.w3.org/2000/svg">
<path fill-rule="evenodd" clip-rule="evenodd" d="M1 4C1 3.44772 1.44772 3 2 3H2.33085C3.61846 3 4.74244 3.81779 5.15954 5H17.5604C19.4535 5 20.8734 6.73197 20.5021 8.58835L20.2777 9.71044C20.0141 11.0284 18.9061 12.0102 17.5661 12.1133L6.64428 12.9534L6.68528 13.1789C6.77174 13.6544 7.18587 14 7.66915 14H18C18.5523 14 19 14.4477 19 15C19 15.5523 18.5523 16 18 16H7.66915C6.21929 16 4.9769 14.9631 4.71754 13.5367L3.31472 5.82111C3.22826 5.34562 2.81413 5 2.33085 5H2C1.44772 5 1 4.55228 1 4ZM6.2846 10.9752L17.4127 10.1191C17.8594 10.0848 18.2287 9.75752 18.3166 9.31821L18.541 8.19612C18.6647 7.57732 18.1914 7 17.5604 7H5.56185L6.2846 10.9752Z" fill="#808080"/>
<path fill-rule="evenodd" clip-rule="evenodd" d="M7 21C8.10457 21 9 20.1046 9 19C9 17.8954 8.10457 17 7 17C5.89543 17 5 17.8954 5 19C5 20.1046 5.89543 21 7 21Z" fill="#808080"/>
<path fill-rule="evenodd" clip-rule="evenodd" d="M17 21C18.1046 21 19 20.1046 19 19C19 17.8954 18.1046 17 17 17C15.8954 17 15 17.8954 15 19C15 20.1046 15.8954 21 17 21Z" fill="#808080"/>
</svg>

<svg width="24" height="24" fill="none" xmlns="http://www.w3.org/2000/svg"><path fill-rule="evenodd" clip-rule="evenodd" d="M1 4a1 1 0 011-1h.33a3 3 0 012.83 2h12.4a3 3 0 012.942 3.588l-.224 1.122a3 3 0 01-2.712 2.403l-10.922.84.041.226A1 1 0 007.67 14H18a1 1 0 110 2H7.67a3 3 0 01-2.952-2.463L3.315 5.82A1 1 0 002.33 5H2a1 1 0 01-1-1zm5.285 6.975l11.128-.856a1 1 0 00.904-.8l.224-1.123A1 1 0 0017.561 7h-12l.724 3.975zM7 21a2 2 0 100-4 2 2 0 000 4zM17 21a2 2 0 100-4 2 2 0 000 4z" fill="gray"/></svg>
